X:1
T:A Gentleman of Exeter
M:3/4
L:1/8
K:D
 z2 z DF A| G3 CE E| D2- DG GG| G2 DD FG| A3 AA c| d2- A A/2B/2 =cd|\
 A3 DF A| G3 CE E| D3 z2 z|
